X: 10521
T: Doon, The
R: reel
M: 4/4
K: Dmajor
DDDd BAAA|DFAF E2FE|D2FA BAFA|1 (3Bcd ec dBAF:|2 (3Bcd ec d3A||
d2fd Adfd|(3ddd fd BABc|d2fd Adfg|aaeg fd (3ddd|
d2fd Adfd|Adfd ~e3f|gfec dcBA|(3Bcd ec dBAF||

